icon-themes/sifr_svg/cmd/lc_gluevertaligncenter.svg

<svg viewBox="0 0 24 24" xmlns="http://www.w3.org/2000/svg"><g fill="#555753"><path d="m18 10h-4v-4h-4v4h-4v4h4v4h4v-4h4z" opacity=".35"/><path d="m2 2v4h.002c.711574 0 1.377316.1635297 1.998.4335938v-2.4335938h16v16h-16v-2.433594c-.620681.270064-1.28641.433594-1.998047.433594h-.001953v4h20v-20zm0 6v8c1.427234-.0018 2.745368-.763978 3.458984-2h6.541016c1.1 0 2-.91 2-2 0-1.1-.9-2-2-2h-6.541016c-.713616-1.236022-2.03175-2-3.458984-2z"/></g></svg>

<svg xmlns="http://www.w3.org/2000/svg" viewBox="0 0 24 24">
  <path
     style="opacity:0.35;fill:#555753"
     d="M 18,10 H 14 V 6 h -4 v 4 H 6 v 4 h 4 v 4 h 4 v -4 h 4 z"
     />
  <path
     style="fill:#555753"
     d="M 2,2 V 6 H 2.002 C 2.713574,6 3.379316,6.1635297 4,6.4335938 V 4 H 20 V 20 H 4 V 17.566406 C 3.379319,17.83647 2.71359,18 2.001953,18 H 2 v 4 H 22 V 2 Z m 0,6 v 8 C 3.427234,15.9982 4.745368,15.236022 5.458984,14 H 12 c 1.1,0 2,-0.91 2,-2 0,-1.1 -0.9,-2 -2,-2 H 5.458984 C 4.745368,8.763978 3.427234,8 2,8 Z"
     />
</svg>
